dist/img/SEARCH/side-bar/location_icon.svg

<svg width="20" height="20" viewBox="0 0 20 20" fill="none" xmlns="http://www.w3.org/2000/svg">
<path d="M7.41998 13.75H10.435C10.4233 13.8875 10.4166 14.0267 10.4166 14.1667C10.4166 15.1675 10.7975 16.1342 11.4767 17.0733C11.0267 17.8725 10.5125 18.3325 9.99998 18.3325C9.00248 18.3325 7.99998 16.5875 7.46832 13.9958L7.41998 13.7508V13.75Z" fill="white"/>
<path d="M7.22836 12.4999H10.7284C11.1383 11.4538 11.917 10.5939 12.9175 10.0824V10.0008C12.9175 9.42911 12.8959 8.87161 12.8542 8.33411H7.14586L7.11836 8.74077C7.04595 9.99465 7.08275 11.2524 7.22836 12.4999Z" fill="white"/>
<path d="M15 9.58337C16.2858 9.58337 17.4475 10.1125 18.2792 10.965C18.3806 10.0874 18.3432 9.19933 18.1683 8.33337H14.11L14.1417 8.88087C14.1542 9.13754 14.1617 9.39754 14.1658 9.65921C14.4358 9.60921 14.7158 9.58337 15 9.58337Z" fill="white"/>
<path d="M2.55499 13.7509H6.14333C6.44666 15.4859 6.96249 16.9625 7.63666 17.995C5.51794 17.3662 3.73453 15.9238 2.67666 13.9834L2.55499 13.7509Z" fill="white"/>
<path d="M1.83247 8.33337H5.8908C5.80362 9.55998 5.81281 10.7915 5.9183 12.0167L5.9658 12.5H2.04663C1.62451 11.1515 1.55055 9.71815 1.83163 8.33337H1.83247Z" fill="white"/>
<path d="M12.4533 2.14753L12.3633 2.00586C13.6019 2.37348 14.7384 3.02334 15.6835 3.90435C16.6285 4.78536 17.3564 5.87354 17.8099 7.08336H13.9849C13.7216 5.07003 13.1874 3.34003 12.4533 2.14753Z" fill="white"/>
<path d="M7.53498 2.03669L7.63665 2.00586C6.90248 3.13086 6.35665 4.78003 6.06665 6.71669L6.01498 7.08336H2.19165C2.63872 5.8903 3.35267 4.81526 4.27892 3.94043C5.20517 3.06559 6.31919 2.41414 7.53582 2.03586L7.53498 2.03669Z" fill="white"/>
<path d="M9.99997 1.66833C11.0991 1.66833 12.205 3.78667 12.6783 6.82084L12.7175 7.08333H7.28247C7.7333 3.90917 8.86997 1.66833 9.99997 1.66833Z" fill="white"/>
<path d="M18.75 14.1666C18.75 13.1721 18.3549 12.2182 17.6516 11.515C16.9484 10.8117 15.9946 10.4166 15 10.4166C14.0054 10.4166 13.0516 10.8117 12.3483 11.515C11.6451 12.2182 11.25 13.1721 11.25 14.1666C11.25 15.7191 12.4333 17.3458 14.75 19.0833C14.8221 19.1374 14.9098 19.1666 15 19.1666C15.0902 19.1666 15.1779 19.1374 15.25 19.0833C17.5667 17.3458 18.75 15.7191 18.75 14.1666ZM13.75 14.1666C13.75 13.8351 13.8817 13.5172 14.1161 13.2827C14.3505 13.0483 14.6685 12.9166 15 12.9166C15.3315 12.9166 15.6495 13.0483 15.8839 13.2827C16.1183 13.5172 16.25 13.8351 16.25 14.1666C16.25 14.4981 16.1183 14.8161 15.8839 15.0505C15.6495 15.2849 15.3315 15.4166 15 15.4166C14.6685 15.4166 14.3505 15.2849 14.1161 15.0505C13.8817 14.8161 13.75 14.4981 13.75 14.1666Z" fill="white"/>
</svg>

<svg width="20" height="20" viewBox="0 0 20 20" fill="none" xmlns="http://www.w3.org/2000/svg"><path d="M7.42 13.75h3.015a4.917 4.917 0 00-.018.417c0 1 .38 1.967 1.06 2.906-.45.8-.965 1.26-1.477 1.26-.998 0-2-1.745-2.532-4.337l-.048-.245v-.001zm-.192-1.25h3.5a4.6 4.6 0 012.19-2.418v-.081c0-.572-.022-1.13-.064-1.667H7.146l-.028.407a21.655 21.655 0 00.11 3.759zM15 9.583c1.286 0 2.448.53 3.28 1.382a8.414 8.414 0 00-.112-2.632H14.11l.032.548c.012.257.02.517.024.778.27-.05.55-.076.834-.076zM2.555 13.75h3.588c.304 1.736.82 3.212 1.494 4.245a8.357 8.357 0 01-4.96-4.012l-.122-.232zm-.723-5.417h4.059a23.509 23.509 0 00.027 3.684l.048.483h-3.92a8.372 8.372 0 01-.214-4.167zm10.621-6.185l-.09-.142a8.356 8.356 0 015.447 5.077h-3.825c-.263-2.013-.798-3.743-1.532-4.935zm-4.918-.111l.102-.031c-.735 1.125-1.28 2.774-1.57 4.71l-.052.367H2.192a8.357 8.357 0 015.344-5.047h-.001zM10 1.668c1.1 0 2.205 2.119 2.678 5.153l.04.262H7.281C7.733 3.91 8.87 1.668 10 1.668z" fill="#fff"/><path d="M18.75 14.167a3.75 3.75 0 00-7.5 0c0 1.552 1.183 3.179 3.5 4.916a.416.416 0 00.5 0c2.317-1.737 3.5-3.364 3.5-4.916zm-5 0a1.25 1.25 0 112.5 0 1.25 1.25 0 01-2.5 0z" fill="#fff"/></svg>
